!!!OTL: Das Schwabentoechterlein 'Ach Mutter, ich kann nicht laenger mehr warten,
!!!ARE: Europa, Mitteleuropa, Luxemburg, Boxhorn
!!!YOR: 4, S. 43
!!    1900 aufgezeichnet (ca.)
!!!SCT: Q0073C
!!!YEM: Copyright 1995, estate of Helmut Schaffrath.
**kern
*ICvox
*Ivox
!! Mixed meters:  3/8; 3/4; 2/4
*M2/4
*k[f#c#]
*D:
{16a
=1
8a
16a
16a
16a
16a
=2
8a
16a
16a
16a
16a}
=3
{4b
8a
=4
8f#
8e
8f#
=5
4e
4r}
=6
{8e
8f#
=7
4g
8b
8b
=8
4b
8a
8g
=9
4f#
8a
8b
=10
8a
8f#}
{8f#
8d
=11
4e
8g
8f#
=12
4e
4d
=13
4g
8b
8ee
=14
4dd
16r}
==
!!!AGN: Ballade, Weglaufen, Schwangerschaft, Rueckkehr
!! Schlusspause korrigiert.
!!!ONB: ESAC (Essen Associative Code) Database: BALLADE
!!!AMT: irregular
!!!AIN: vox
!!!EED: Helmut Schaffrath
!!!EEV: 1.0
*-
